packages/icons/src/svgs/uncategorized/NestedVisible.svg

<svg xmlns="http://www.w3.org/2000/svg" fill="currentColor" aria-hidden="true" viewBox="0 0 32 32">
    <path d="M13.6 4.35A1.33 1.33 0 0012.29 3h-8A1.32 1.32 0 003 4.35a1.32 1.32 0 001.3 1.34h8a1.33 1.33 0 001.3-1.34zm14.1 8.39H4.3a1.35 1.35 0 010-2.7h23.4a1.35 1.35 0 010 2.7zm1.3 6.78a1.32 1.32 0 00-1.3-1.34H4.3a1.35 1.35 0 000 2.69h23.4a1.32 1.32 0 001.3-1.35zm0 8.13a1.32 1.32 0 00-1.3-1.34H4.3a1.35 1.35 0 000 2.69h23.4a1.32 1.32 0 001.3-1.35z"/>
</svg>

<svg xmlns="http://www.w3.org/2000/svg" viewBox="0 0 32 32">
    <path fill="currentColor" d="M13.6,4.35A1.33,1.33,0,0,0,12.29,3h-8A1.32,1.32,0,0,0,3,4.35,1.32,1.32,0,0,0,4.3,5.69h8A1.33,1.33,0,0,0,13.6,4.35Zm14.1,8.39H4.3a1.35,1.35,0,0,1,0-2.7H27.7a1.35,1.35,0,0,1,0,2.7ZM29,19.52a1.32,1.32,0,0,0-1.3-1.34H4.3a1.35,1.35,0,0,0,0,2.69H27.7A1.32,1.32,0,0,0,29,19.52Zm0,8.13a1.32,1.32,0,0,0-1.3-1.34H4.3A1.35,1.35,0,0,0,4.3,29H27.7A1.32,1.32,0,0,0,29,27.65Z"/>
</svg>
